X:1
T:Title
%%score { ( 1 4 ) | ( 2 3 ) }
L:1/8
M:6/8
K:G
V:1 treble nm="Grand Piano"
V:4 treble 
V:2 bass 
V:3 bass 
V:1
 z3 z2[Q:1/4=81] D/D/ | GGG FGA | GGB d2 e | dBG [^CE][CB][CA] | A3- A2 D/D/ | GGG FGA | %6
 GGB d2 [Ge]/[Ge]/ | [Gd]2 [EGc] [DGB]2 [CFA] | G6 |[M:4/4][Q:1/4=92] d3 e dBGA | B2 d2 G4 | %11
 d3 e dBGB |[M:3/4] A6 |[M:1/4] [Fd]2 |[M:4/4] dedB G2 A2 | BcB[DG] [CE]2 [Ge]2 | %16
 [Gd]3 [EGc] [DGB]2 [CFA]2 |[M:3/4] [B,G]6 |] %18
V:2
 z3 z2 [G,B,]/[G,B,]/ | z3 .D3 | [G,B,D][G,B,D][G,DG] [G,B,G]2 [G,CG] | %3
 [G,B,G][G,DG][K:bass][G,B,D] [A,,G,][A,,G,][A,,G,] | [D,F,D]3- [D,F,D]2 [F,C]/[F,C]/ | z3 .D3 | %6
 [G,B,D][G,B,D][G,DG] [G,B,G]2[K:bass] [C,C]/[C,C]/ | [D,B,]2 D, D,2 D, | [G,B,]6 | %9
[M:4/4][K:treble] [G,B,G]3 [G,CG] [G,B,G][G,DG][G,B,][G,CG] | [G,DG]2 [G,B,G]2 [G,B,D]4 | %11
 [G,B,G]3 [G,CG] [G,B,G][G,DG][G,B,][G,DG] |[M:3/4][K:bass] [D,D]2 [D,D]2 [D,D]2 |[M:1/4] [D,C]2 | %14
[M:4/4][K:treble] [G,B,G][G,CG][G,B,G][G,DG] [G,B,]2 [G,CG]2 | %15
 [G,DG][G,EG][G,DG][K:bass][B,,G,] [C,G,]2 [C,C]2 | [D,B,]3 D, D,2 D,2 |[M:3/4] G,6 |] %18
V:3
 x6 | [G,B,D][G,B,D][G,B,D] [A,C][G,B,][F,A,D] | x6 | x2[K:bass] x4 | x6 | %5
 [G,B,D][G,B,D][G,B,D] [A,C][G,B,][F,A,D] | x5[K:bass] x | x6 | x6 |[M:4/4][K:treble] x8 | x8 | %11
 x8 |[M:3/4][K:bass] x6 |[M:1/4] x2 |[M:4/4][K:treble] x8 | x3[K:bass] x5 | x8 |[M:3/4] x6 |] %18
V:4
 x6 | x6 | x6 | x6 | x6 | x6 | x6 | x6 | x6 |[M:4/4] x8 | x8 | x8 |[M:3/4] F2 F2 F2 |[M:1/4] x2 | %14
[M:4/4] x8 | x8 | x8 |[M:3/4] x6 |] %18

